X: 183
T: Memories of Father Angus MacDonnell
C: Mike MacDougall
O: Cape Breton
R: march, strathspey
S: printed copy of unknown origin in Concord Slow Scottish Session collection
Z: 2014 John Chambers <jc:trillian.mit.edu>
M: C
L: 1/8
K: G
%%slurgraces
"D7"(3DEF |\
"G"G>G G<A "D7"G>F E<D | "G"B<d d>B {Bc}d2 (3(dBd) |\
"C"{d}e2 "G"d<B "Am"c>A "G"B<G | "C"{D}E4- E2 ||
"D7"(3DEF |\
"G"G>G G<A "D7"G>F E<D | "G"B<d d>B {Bc}d2 "C"(3(dge) |\
"G"d>B G<B "Am"A>G "D7"A<B | "G"G2-"C"G2 "G"G2 |]
(3Bcd |\
"Em"e>e e<f g>f e>d | "G"B<d d<B {Bc}d2 (3(dBd) |\
"C"{d}e2 "G"d<B "Am"c>A "G"B<G | "C"{D}E4- E2 ||
"D7"(3DEF |\
"G"G>G G<A "D7"G>F E<D | "G"B<d d>B "Bm"{Bc}d2 "Em"(3(dge) |\
"G"d>B G<B "Am"A>G "D7"A<B | "G"G2-"C"G2 "G"G2 |]
